X: 6
T: Missa Ecce ancilla domini / Kyrie
N: Derived from Duf1003a-Missa_Ecce_ancilla_domini-Kyrie.krn
C: Guillaume Du Fay
%%abc-version 2.0
%%abcx-abcm2ps-target-version 5.9.1 (29 Sep 2008)
%%abc-creator hum2abc beta
%%abcx-conversion-date 2019/02/16 20:31:46
%%abc-edited-by Alejandro Planchart, Jesse Rodin
%%abc-edited-by Alejandro Planchart
%%abcx-initial-encoding-date 2014/07/24/
%%humdrum-veritas 2011577788
%%humdrum-veritas-data 2593541554
%%linebreak <none>
%%barnumbers 0
L: 1/4
M: 3/1
Q: 1/2=120
%%staves [1 2 3 4]
V: 1 clef=treble
V: 2 clef=treble-8
V: 3 clef=treble-8
V: 4 clef=bass
K: F
[V:1] G12 | 
[V:2] G6A2=B4 | 
[V:3] z12 | 
[V:4] z12 | 
[V:1] E4F6E2 | 
[V:2] c4d8 | 
[V:3] z12 | 
[V:4] z12 | 
[V:1] E4A6G2 | 
[V:2] c8c4 | 
[V:3] z12 | 
[V:4] z12 | 
[V:1] G6^F2F2E2 | 
[V:2] =B4A8 | 
[V:3] z12 | 
[V:4] z12 | 
[V:1] G4D4G4 | 
[V:2] G6F2D4 | 
[V:3] G12 | 
[V:4] G,,12 | 
[V:1] E2F2E2A4G2 | 
[V:2] z4A8 | 
[V:3] c12 | 
[V:4] A,,8A,,2B,,2 | 
[V:1] E3FG4[C4A4] | 
[V:2] G4E4F3E | 
[V:3] c12 | 
[V:4] C,6B,,2A,,4 | 
[V:1] D4z2D4E2 | 
[V:2] G4D4G4 | 
[V:3] =B12 | 
[V:4] G,,12 | 
[V:1] F2E2D4C4 | 
[V:2] F8E4 | 
[V:3] A8G4 | 
[V:4] D,8E,4 | 
[V:1] D8G4 | 
[V:2] D4z4z4 | 
[V:3] A4=B8 | 
[V:4] F,4G,8 | 
[V:1] A2F4D2E4- | 
[V:2] d8c4 | 
[V:3] A12 | 
[V:4] D,8A,,2B,,2 | 
[V:1] E2D2E3FD4 | 
[V:2] c6=B2A4 | 
[V:3] G8F4 | 
[V:4] C,8D,4 | 
[V:1] z2D2C2E2FE3/D/C | 
[V:2] G4E8 | 
[V:3] G4A8 | 
[V:4] G,,4C,8 | 
[V:1] =B,4z4z4 | 
[V:2] D8D2E2 | 
[V:3] G4G8 | 
[V:4] G,,12 | 
[V:1] A,4G,2C4=B,2 | 
[V:2] F4G2E2D4 | 
[V:3] z12 | 
[V:4] z12 | 
[V:1] C4D2=B,2A,4 | 
[V:2] C2E2D2G4F2 | 
[V:3] z12 | 
[V:4] z12 | 
[V:1] G,4z2G2E2F2 | 
[V:2] G2E2F2G4A2 | 
[V:3] z12 | 
[V:4] z12 | 
[V:1] G4E4F2D2- | 
[V:2] G2c3=Bc2d4 | 
[V:3] z12 | 
[V:4] z12 | 
[V:1] D2A3GG4^F2 | 
[V:2] =B2c3=BG2A4 | 
[V:3] z12 | 
[V:4] z12 | 
[V:1] G8z4 | 
[V:2] G4z4C4 | 
[V:3] z12 | 
[V:4] z12 | 
[V:1] C4D2F4G2 | 
[V:2] E4D8 | 
[V:3] z12 | 
[V:4] z12 | 
[V:1] E4D4G4 | 
[V:2] C4G8 | 
[V:3] z12 | 
[V:4] z12 | 
[V:1] F2E4E2F2D2 | 
[V:2] A4G2c4=B2 | 
[V:3] z12 | 
[V:4] z12 | 
[V:1] E2C4G,2A,3=B, | 
[V:2] c4A2=B2c4 | 
[V:3] z12 | 
[V:4] z12 | 
[V:1] C4z2=B,2A,2C2- | 
[V:2] F4E2D4C2 | 
[V:3] z12 | 
[V:4] z12 | 
[V:1] C2D2E4C2F2- | 
[V:2] F3EC4F4 | 
[V:3] z12 | 
[V:4] z12 | 
[V:1] FEF2G2D2E3D | 
[V:2] A4G8 | 
[V:3] z12 | 
[V:4] z12 | 
[V:1] F4z4F4- | 
[V:2] F8z4 | 
[V:3] z12 | 
[V:4] z12 | 
[V:1] F2E4C2D4 | 
[V:2] A8=B4 | 
[V:3] z12 | 
[V:4] z12 | 
[V:1] E4C2D4E2 | 
[V:2] c2A4F2G4 | 
[V:3] z12 | 
[V:4] z12 | 
[V:1] C4F3ED2C2 | 
[V:2] A2F4A2=B2c2- | 
[V:3] z12 | 
[V:4] z12 | 
[V:1] A,4G,2C2D2F2 | 
[V:2] c2F2G2E2D4 | 
[V:3] z12 | 
[V:4] z12 | 
[V:1] E2D3CC4=B,2 | 
[V:2] C2F2E2C2D4 | 
[V:3] z12 | 
[V:4] z12 | 
[V:1] C8z4 | 
[V:2] C12 | 
[V:3] z12 | 
[V:4] z12 | 
[V:1] =B,6C2D4 | 
[V:2] z4D8 | 
[V:3] G12- | 
[V:4] G,,12 | 
[V:1] C2E4F2D4 | 
[V:2] E3FG2c2A2=B2 | 
[V:3] G4E4F4 | 
[V:4] C,8D,4 | 
[V:1] E3FG4C4 | 
[V:2] c8z2c2 | 
[V:3] G8G4 | 
[V:4] C,8E,4 | 
[V:1] z4z4C4 | 
[V:2] =B2A3GG4^F2 | 
[V:3] F2E3DD2E2C2 | 
[V:4] D,2C,4B,,2A,,4 | 
[V:1] =B,4G,4D4- | 
[V:2] G4d4=B4 | 
[V:3] D8z4 | 
[V:4] G,,8G,,2A,,2 | 
[V:1] D4D4C4 | 
[V:2] G8A4- | 
[V:3] D8E4- | 
[V:4] B,,8A,,4- | 
[V:1] E4D4z2F2 | 
[V:2] A4=B6A2 | 
[V:3] E4F8 | 
[V:4] A,,4D,8 | 
[V:1] E2G4F2D4 | 
[V:2] c4d4D4 | 
[V:3] G12 | 
[V:4] C,4B,,8 | 
[V:1] C6D2E4 | 
[V:2] E8E4 | 
[V:3] A12 | 
[V:4] A,,12 | 
[V:1] D2A4G2F2ED | 
[V:2] F3GA4D2F2- | 
[V:3] A4F2G2A4- | 
[V:4] D,8D,4 | 
[V:1] C2E3DG4F2 | 
[V:2] F2E2G4z4 | 
[V:3] A2c2=B2G2A4 | 
[V:4] A,,4G,,4D,4 | 
[V:1] G2E3CC2D2=B,2 | 
[V:2] C4E4D4 | 
[V:3] G12 | 
[V:4] E,4C,4G,,4 | 
[V:1] C12 ||  
[V:2] E6C2C4 ||  
[V:3] G12 ||  
[V:4] C,12 ||  
[V:1]  [K:F] [K:clef=treble][M:2/1]C8 | 
[V:2]  [K:F] [K:clef=treble-8][M:2/1]c8- | 
[V:3]  [K:F] [K:clef=treble-8][M:2/1]z8 | 
[V:4]  [K:F] [K:clef=bass][M:2/1]z8 | 
[V:1] E8 | 
[V:2] c8 | 
[V:3] z8 | 
[V:4] z8 | 
[V:1] D4G4- | 
[V:2] G8 | 
[V:3] z8 | 
[V:4] z8 | 
[V:1] G2F2E4 | 
[V:2] c8 | 
[V:3] z8 | 
[V:4] z8 | 
[V:1] D6C2 | 
[V:2] =B8 | 
[V:3] z8 | 
[V:4] z8 | 
[V:1] C6=B,A, | 
[V:2] A4c4 | 
[V:3] z8 | 
[V:4] z8 | 
[V:1] G,4=B,4 | 
[V:2] =B4G4- | 
[V:3] z8 | 
[V:4] z8 | 
[V:1] A,8 | 
[V:2] G4^F4 | 
[V:3] z8 | 
[V:4] z8 | 
[V:1] G,8 | 
[V:2] G4=B4 | 
[V:3] z8 | 
[V:4] z8 | 
[V:1] z4C4 | 
[V:2] A8 | 
[V:3] z8 | 
[V:4] z8 | 
[V:1] D4E4- | 
[V:2] G8 | 
[V:3] z8 | 
[V:4] z8 | 
[V:1] E4F4 | 
[V:2] C4D4 | 
[V:3] z8 | 
[V:4] z8 | 
[V:1] G4E4- | 
[V:2] E4C4 | 
[V:3] z8 | 
[V:4] z8 | 
[V:1] E4A2G2 | 
[V:2] c6=B2 | 
[V:3] z8 | 
[V:4] z8 | 
[V:1] F2E2E4- | 
[V:2] A4G4 | 
[V:3] z8 | 
[V:4] z8 | 
[V:1] E4D4 | 
[V:2] F8 | 
[V:3] z8 | 
[V:4] z8 | 
[V:1] E8- | 
[V:2] E8 | 
[V:3] z8 | 
[V:4] z8 | 
[V:1] E8 | 
[V:2] z8 | 
[V:3] z8 | 
[V:4] z8 | 
[V:1] z8 | 
[V:2] G8- | 
[V:3] z8 | 
[V:4] C,8- | 
[V:1] z8 | 
[V:2] G4A4 | 
[V:3] z8 | 
[V:4] C,8 | 
[V:1] z8 | 
[V:2] G4c4- | 
[V:3] z8 | 
[V:4] (3:2:2E,8F,4 | 
[V:1] z8 | 
[V:2] c4=B4 | 
[V:3] z8 | 
[V:4] D,8 | 
[V:1] z8 | 
[V:2] c6=B2 | 
[V:3] z8 | 
[V:4] C,8- | 
[V:1] z8 | 
[V:2] A2G2G4- | 
[V:3] z8 | 
[V:4] C,8 | 
[V:1] z8 | 
[V:2] G4G4 | 
[V:3] z8 | 
[V:4] G,,4C,4- | 
[V:1] z8 | 
[V:2] A2G2F2E2 | 
[V:3] z8 | 
[V:4] C,4A,,4 | 
[V:1] z8 | 
[V:2] D6C2 | 
[V:3] z8 | 
[V:4] =B,,6A,,2 | 
[V:1] z8 | 
[V:2] C8 | 
[V:3] z8 | 
[V:4] C,8- | 
[V:1] z8 | 
[V:2] z4_E4 | 
[V:3] z8 | 
[V:4] C,8 | 
[V:1] z8 | 
[V:2] D4G4- | 
[V:3] z8 | 
[V:4] G,,4B,,4 | 
[V:1] z8 | 
[V:2] G4F4 | 
[V:3] z8 | 
[V:4] A,,8 | 
[V:1] z8 | 
[V:2] G4B4 | 
[V:3] z8 | 
[V:4] G,,8 | 
[V:1] z8 | 
[V:2] A4d4 | 
[V:3] z8 | 
[V:4] D,8 | 
[V:1] z8 | 
[V:2] B2c4B2 | 
[V:3] z8 | 
[V:4] _E,6D,2 | 
[V:1] z8 | 
[V:2] A2G2G4- | 
[V:3] z8 | 
[V:4] C,4B,,4 | 
[V:1] z8 | 
[V:2] G4^F4 | 
[V:3] z8 | 
[V:4] A,,8 | 
[V:1] z8 | 
[V:2] G8 | 
[V:3] z8 | 
[V:4] G,,8- | 
[V:1] z8 | 
[V:2] z8 | 
[V:3] z8 | 
[V:4] G,,8 | 
[V:1] G8 | 
[V:2] G8 | 
[V:3] z8 | 
[V:4] z8 | 
[V:1] A4G4- | 
[V:2] c8- | 
[V:3] z8 | 
[V:4] z8 | 
[V:1] G2F2E4 | 
[V:2] c8 | 
[V:3] z8 | 
[V:4] z8 | 
[V:1] D8 | 
[V:2] =B6A2 | 
[V:3] z8 | 
[V:4] z8 | 
[V:1] C4E4 | 
[V:2] c8 | 
[V:3] z8 | 
[V:4] z8 | 
[V:1] D4G4- | 
[V:2] d4=B4 | 
[V:3] z8 | 
[V:4] G,8 | 
[V:1] G4^F4 | 
[V:2] A8 | 
[V:3] z8 | 
[V:4] D,8 | 
[V:1] G4z4 | 
[V:2] G8 | 
[V:3] z8 | 
[V:4] E,4C,4 | 
[V:1] E4A4 | 
[V:2] C8 | 
[V:3] z8 | 
[V:4] G,2E,4F,2 | 
[V:1] G4E4 | 
[V:2] E4A4 | 
[V:3] z8 | 
[V:4] G,4C,4- | 
[V:1] z4G4 | 
[V:2] G4E4 | 
[V:3] z8 | 
[V:4] C,8- | 
[V:1] A4=B4 | 
[V:2] z4G4 | 
[V:3] z8 | 
[V:4] C,4=B,,4 | 
[V:1] c4=B2G2 | 
[V:2] A4=B4 | 
[V:3] z8 | 
[V:4] A,,4G,,4 | 
[V:1] A4G4 | 
[V:2] c4=B2G2 | 
[V:3] z8 | 
[V:4] C,4G,,4 | 
[V:1] E2F4G2 | 
[V:2] A8 | 
[V:3] z8 | 
[V:4] z4D,4 | 
[V:1] E4C4 | 
[V:2] G4E2F2- | 
[V:3] z8 | 
[V:4] E,6A,2- | 
[V:1] D4E4- | 
[V:2] F2G2E4 | 
[V:3] z8 | 
[V:4] A,4G,4 | 
[V:1] E4F4 | 
[V:2] C4D4 | 
[V:3] z8 | 
[V:4] E,2G,2F,2E,D, | 
[V:1] G4C4- | 
[V:2] E4F4 | 
[V:3] z8 | 
[V:4] C,8 | 
[V:1] C2=B,2B,2A,2 | 
[V:2] D8 | 
[V:3] z8 | 
[V:4] F,8 | 
[V:1] C4z4 | 
[V:2] C8- | 
[V:3] z8 | 
[V:4] G,8 | 
[V:1] G,4C4- | 
[V:2] C8 | 
[V:3] z8 | 
[V:4] E,8 | 
[V:1] C2=B,2C4 | 
[V:2] E8 | 
[V:3] z8 | 
[V:4] C,4A,,4 | 
[V:1] D6=B,2 | 
[V:2] D4G4 | 
[V:3] z8 | 
[V:4] B,,4G,,4 | 
[V:1] C4=B,4 | 
[V:2] A4G4- | 
[V:3] z8 | 
[V:4] z4G,,4 | 
[V:1] A,8 | 
[V:2] G4^F4 | 
[V:3] z8 | 
[V:4] D,8 | 
[V:1] G,8 ||  
[V:2] G8 ||  
[V:3] z8 ||  
[V:4] G,,8 ||  
[V:1]  [K:F] [K:clef=treble][M:3/1]E12 | 
[V:2]  [K:F] [K:clef=treble-8][M:3/1]c8c4- | 
[V:3]  [K:F] [K:clef=treble-8][M:3/1]G8G4- | 
[V:4]  [K:F] [K:clef=bass][M:3/1]C,12- | 
[V:1] E8E4 | 
[V:2] c2=B2A2G2G4 | 
[V:3] G4c6=B2 | 
[V:4] C,8C,4 | 
[V:1] F2D4^C2D4 | 
[V:2] F4E4D4 | 
[V:3] A4G4A4 | 
[V:4] D,4E,4F,4 | 
[V:1] z2G4E2F4 | 
[V:2] E2C4c2A2=B2 | 
[V:3] G8F4 | 
[V:4] G,2E,4C,2D,4 | 
[V:1] E8D4 | 
[V:2] c2z2C4D4 | 
[V:3] G4A2A4G2 | 
[V:4] C,4A,,4B,,4 | 
[V:1] C2D2E4F2D2 | 
[V:2] E8D2F2 | 
[V:3] A12 | 
[V:4] A,,8D,4 | 
[V:1] E4z4z4 | 
[V:2] E4D2D4C2 | 
[V:3] z4G4^F4 | 
[V:4] C,4B,,2G,,2A,,4 | 
[V:1] D6F4G2 | 
[V:2] D4z4d4 | 
[V:3] G4A8 | 
[V:4] G,,4D,8 | 
[V:1] A4D2E2F4 | 
[V:2] c3=BA2G2z2F2 | 
[V:3] A6c2=B2A2 | 
[V:4] z2F,4E,2D,4 | 
[V:1] E4D2F4G2 | 
[V:2] G2A2D6G2- | 
[V:3] c4d6c2 | 
[V:4] C,4B,,8 | 
[V:1] E4F4D4 | 
[V:2] G4A4F4 | 
[V:3] c6=B2=B2A2 | 
[V:4] C,2E,2D,8 | 
[V:1] E8z4 | 
[V:2] G12 | 
[V:3] c12 | 
[V:4] C,8C,2D,2 | 
[V:1] C4D2C2E2F2 | 
[V:2] z12 | 
[V:3] z12 | 
[V:4] E,4F,3E,C,4 | 
[V:1] G4F2E3DC2 | 
[V:2] C4D2C2E2F2 | 
[V:3] z12 | 
[V:4] z12 | 
[V:1] =B,4A,2G,2C2E2 | 
[V:2] G4F2E3DC2 | 
[V:3] z12 | 
[V:4] z12 | 
[V:1] D4E2C4F2 | 
[V:2] =B,4C4E2D2- | 
[V:3] z12 | 
[V:4] z12 | 
[V:1] E2D3CC2A,2=B,2 | 
[V:2] DCF2E2C2D4 | 
[V:3] z12 | 
[V:4] z12 | 
[V:1] C4z4C4 | 
[V:2] C8E4 | 
[V:3] z12 | 
[V:4] z12 | 
[V:1] D4E6D2 | 
[V:2] F4E2G4F2 | 
[V:3] z12 | 
[V:4] z12 | 
[V:1] F4E2G4F2 | 
[V:2] D4C8 | 
[V:3] z12 | 
[V:4] z12 | 
[V:1] D4C4z2E2 | 
[V:2] =B,4C8 | 
[V:3] z12 | 
[V:4] z12 | 
[V:1] D2G4A2=B2G2- | 
[V:2] G4E2F2G4 | 
[V:3] z12 | 
[V:4] z12 | 
[V:1] G2F2G4E4 | 
[V:2] A4G2c3=Bc2 | 
[V:3] z12 | 
[V:4] z12 | 
[V:1] D2F2E2C2D4 | 
[V:2] d4c2A2=B3A | 
[V:3] z12 | 
[V:4] z12 | 
[V:1] C12 | 
[V:2] c4z4z4 | 
[V:3] z12 | 
[V:4] z12 | 
[V:1] z4F8 | 
[V:2] c8d4 | 
[V:3] A8=B4 | 
[V:4] F,8D,4 | 
[V:1] E4D2A4G2 | 
[V:2] G4d8 | 
[V:3] c4A8 | 
[V:4] C,4D,8 | 
[V:1] ^F3EG6D2- | 
[V:2] d4=B4G4 | 
[V:3] A4G8 | 
[V:4] D,4G,,4B,,4 | 
[V:1] D2C3=B,G,2A,4 | 
[V:2] A4D8- | 
[V:3] F4G2G4^F2 | 
[V:4] A,,4G,,4z4 | 
[V:1] G,4z4z4 | 
[V:2] D8E2C2 | 
[V:3] G8G4 | 
[V:4] G,,8C,4 | 
[V:1] D4C2E2D2F2- | 
[V:2] D4E4F2D2 | 
[V:3] G4A8 | 
[V:4] B,,4A,,4D,4- | 
[V:1] FED2^C2D2E2C2 | 
[V:2] F2G2A8 | 
[V:3] F4E8 | 
[V:4] D,4A,,8 | 
[V:1] D4F2G2A4 | 
[V:2] A4A8 | 
[V:3] D8F4 | 
[V:4] z4z4D,4 | 
[V:1] G4F6E2 | 
[V:2] z4z4c4 | 
[V:3] G4A4A4 | 
[V:4] E,4F,8 | 
[V:1] E8E4 | 
[V:2] c8c4 | 
[V:3] G6G2G4 | 
[V:4] C,8C,4 | 
[V:1] D2E2C2D2z2A,2 | 
[V:2] =B2A3GG2A2^F2 | 
[V:3] F2E3DD4C2 | 
[V:4] D,2C,4B,,2A,,4 | 
[V:1] =B,2C2D4G4 | 
[V:2] G6A2=B4 | 
[V:3] D8z4 | 
[V:4] G,,8z4 | 
[V:1] !fermata![D12F12A12] | 
[V:2] !fermata!A12 | 
[V:3] !fermata!F12 | 
[V:4] !fermata!D,12 | 
[V:1] !fermata![D12F12] | 
[V:2] !fermata!=B12 | 
[V:3] !fermata!F12 | 
[V:4] !fermata!D,12 | 
[V:1] !fermata!E12 | 
[V:2] !fermata!c12 | 
[V:3] !fermata!G12- | 
[V:4] !fermata!C,12 | 
[V:1] !fermata![C12G12] | 
[V:2] !fermata!C12 | 
[V:3] !fermata!G12 | 
[V:4] !fermata!E,12 | 
[V:1] !fermata!C12 | 
[V:2] !fermata!E12 | 
[V:3] !fermata!G12- | 
[V:4] !fermata!C,12 | 
[V:1] !fermata!=B,12 | 
[V:2] !fermata!D12 | 
[V:3] !fermata!G12 | 
[V:4] !fermata!G,,12 | 
[V:1] !fermata!C12 |]  
[V:2] !fermata!C12 |]  
[V:3] !fermata!G12 |]  
[V:4] !fermata!C,12 |]  



